suite-common/icons/assets/icons/coin.svg

<svg xmlns="http://www.w3.org/2000/svg" viewBox="0 0 16 16">
  <path fill-rule="evenodd" d="M6.653 2.816c-1.438.14-2.634.449-3.666.948-1.133.547-1.786 1.17-2.102 2.006-.084.22-.095.282-.117.657-.013.227-.02 1.091-.015 1.92.01 1.472.011 1.511.07 1.705.375 1.237 1.621 2.186 3.611 2.749.693.196 1.504.338 2.286.4.499.04 2.061.04 2.56 0 1.293-.103 2.533-.399 3.53-.844 1.275-.568 2.094-1.371 2.37-2.323.06-.206.06-.217.06-2.034 0-1.825 0-1.827-.061-2.04-.253-.881-.946-1.596-2.105-2.172-1.068-.532-2.513-.889-3.994-.987-.565-.038-1.977-.029-2.427.015m2.196 1.477c1.922.098 3.729.695 4.511 1.492.272.277.36.455.36.722a.6.6 0 0 1-.09.365c-.396.732-1.774 1.402-3.497 1.7a13.5 13.5 0 0 1-3.849.066c-1.871-.249-3.491-.977-3.911-1.758a.6.6 0 0 1-.093-.373c0-.269.089-.448.36-.724.658-.668 2.05-1.203 3.707-1.425.608-.081 1.647-.108 2.502-.065M2.667 9.086c.139.077.328.173.42.213l.166.073v.643c0 .353-.007.65-.017.66-.009.009-.102-.043-.206-.115-.355-.245-.649-.588-.727-.848-.023-.077-.036-.255-.036-.493v-.372l.073.049c.04.027.187.112.327.19m11.084.187c-.015.362-.021.395-.102.562-.062.128-.151.243-.314.407-.226.227-.54.464-.572.432a7 7 0 0 1-.016-.652v-.635l.286-.145c.158-.081.377-.199.487-.263.11-.065.211-.111.224-.104s.017.178.007.398m-8.431.724c.517.096.902.149 1.467.203.234.022.435.04.446.04.029 0 .025 1.419-.004 1.464-.044.069-1.3-.087-2.016-.252l-.362-.082c-.068-.015-.07-.022-.087-.273-.022-.332-.022-1.013 0-1.122.014-.07.027-.083.073-.072.031.008.248.05.483.094m5.916.221c.021.401.018.973-.006 1.062-.016.059-.05.075-.298.137-.436.109-.976.201-1.58.266-.482.053-.559.056-.58.022-.014-.021-.025-.358-.025-.749v-.711l.153-.016.58-.057a15 15 0 0 0 1.493-.235c.263-.064.243-.086.263.281"/>
</svg>

<svg xmlns="http://www.w3.org/2000/svg" viewBox="0 0 16 16"><path d="M6.653 2.816 C 5.215 2.956,4.019 3.265,2.987 3.764 C 1.854 4.311,1.201 4.934,0.885 5.770 C 0.801 5.990,0.790 6.052,0.768 6.427 C 0.755 6.654,0.748 7.518,0.753 8.347 C 0.763 9.819,0.764 9.858,0.823 10.052 C 1.198 11.289,2.444 12.238,4.434 12.801 C 5.127 12.997,5.938 13.139,6.720 13.201 C 7.219 13.241,8.781 13.241,9.280 13.201 C 10.573 13.098,11.813 12.802,12.810 12.357 C 14.085 11.789,14.904 10.986,15.180 10.034 C 15.240 9.828,15.240 9.817,15.240 8.000 C 15.240 6.175,15.240 6.173,15.179 5.960 C 14.926 5.079,14.233 4.364,13.074 3.788 C 12.006 3.256,10.561 2.899,9.080 2.801 C 8.515 2.763,7.103 2.772,6.653 2.816 M8.849 4.293 C 10.771 4.391,12.578 4.988,13.360 5.785 C 13.632 6.062,13.720 6.240,13.720 6.507 C 13.719 6.683,13.709 6.727,13.630 6.872 C 13.234 7.604,11.856 8.274,10.133 8.572 C 8.954 8.776,7.508 8.801,6.284 8.638 C 4.413 8.389,2.793 7.661,2.373 6.880 C 2.291 6.726,2.280 6.684,2.280 6.507 C 2.280 6.238,2.369 6.059,2.640 5.783 C 3.298 5.115,4.690 4.580,6.347 4.358 C 6.955 4.277,7.994 4.250,8.849 4.293 M2.667 9.086 C 2.806 9.163,2.995 9.259,3.087 9.299 L 3.253 9.372 3.253 10.015 C 3.253 10.368,3.246 10.665,3.236 10.675 C 3.227 10.684,3.134 10.632,3.030 10.560 C 2.675 10.315,2.381 9.972,2.303 9.712 C 2.280 9.635,2.267 9.457,2.267 9.219 L 2.267 8.847 2.340 8.896 C 2.380 8.923,2.527 9.008,2.667 9.086 M13.751 9.273 C 13.736 9.635,13.730 9.668,13.649 9.835 C 13.587 9.963,13.498 10.078,13.335 10.242 C 13.109 10.469,12.795 10.706,12.763 10.674 C 12.754 10.665,12.747 10.372,12.747 10.022 L 12.747 9.387 13.033 9.242 C 13.191 9.161,13.410 9.043,13.520 8.979 C 13.630 8.914,13.731 8.868,13.744 8.875 C 13.758 8.882,13.761 9.053,13.751 9.273 M5.320 9.997 C 5.837 10.093,6.222 10.146,6.787 10.200 C 7.021 10.222,7.222 10.240,7.233 10.240 C 7.262 10.240,7.258 11.659,7.229 11.704 C 7.185 11.773,5.929 11.617,5.213 11.452 C 5.052 11.415,4.889 11.378,4.851 11.370 C 4.783 11.355,4.781 11.348,4.764 11.097 C 4.742 10.765,4.742 10.084,4.764 9.975 C 4.778 9.905,4.791 9.892,4.837 9.903 C 4.868 9.911,5.085 9.953,5.320 9.997 M11.236 10.218 C 11.257 10.619,11.254 11.191,11.230 11.280 C 11.214 11.339,11.180 11.355,10.932 11.417 C 10.496 11.526,9.956 11.618,9.352 11.683 C 8.870 11.736,8.793 11.739,8.772 11.705 C 8.758 11.684,8.747 11.347,8.747 10.956 L 8.747 10.245 8.900 10.229 C 8.984 10.221,9.245 10.195,9.480 10.172 C 9.909 10.129,10.676 10.009,10.973 9.937 C 11.236 9.873,11.216 9.851,11.236 10.218 " stroke="none" fill-rule="evenodd" fill="black"></path></svg>
